X: 7
T: Missa Almana / Agnus Dei
N: Derived from Rue1002e-Missa_Almana-Agnus.krn
C: Pierre de la Rue
%%abc-version 2.0
%%abcx-abcm2ps-target-version 5.9.1 (29 Sep 2008)
%%abc-creator hum2abc beta
%%abcx-conversion-date 2019/02/17 08:01:09
%%abc-edited-by Jesse Rodin
%%abc-edited-by Chris Gage 11-19-2012
%%abcx-initial-encoding-date 2012/11/19/
%%humdrum-veritas 403851233
%%humdrum-veritas-data 522674913
%%linebreak <none>
%%barnumbers 0
L: 1/4
M: 2/1
Q: 1/2=120
%%staves [1 2 3 4]
V: 1 clef=treble
V: 2 clef=treble-8
V: 3 clef=treble-8
V: 4 clef=bass
K: F
[V:1] z8 | 
[V:2] F4F2GA | 
[V:3] z8 | 
[V:4] z8 | 
[V:1] z8 | 
[V:2] B4B4 | 
[V:3] z8 | 
[V:4] z8 | 
[V:1] C4C2DE | 
[V:2] A4A2Bc | 
[V:3] z8 | 
[V:4] z8 | 
[V:1] F4F4 | 
[V:2] d4d4 | 
[V:3] z8 | 
[V:4] z8 | 
[V:1] E4E2FG | 
[V:2] c3BAGc2- | 
[V:3] C8- | 
[V:4] z8 | 
[V:1] A2G2E2G2- | 
[V:2] cAc4BA | 
[V:3] C8- | 
[V:4] z8 | 
[V:1] GFEDE4 | 
[V:2] BAGFG4 | 
[V:3] C8 | 
[V:4] z8 | 
[V:1] F3EDCF2- | 
[V:2] z2F2A2Bc | 
[V:3] F8- | 
[V:4] F,,8 | 
[V:1] FDF4ED | 
[V:2] d2c2A2c2- | 
[V:3] F8- | 
[V:4] F,,8 | 
[V:1] EDCB,C4 | 
[V:2] cBAGA4 | 
[V:3] F8- | 
[V:4] F,,8 | 
[V:1] D8 | 
[V:2] B8 | 
[V:3] F8- | 
[V:4] B,,4B,,4 | 
[V:1] C4A,4 | 
[V:2] z4c4 | 
[V:3] F8- | 
[V:4] A,,4A,,2B,,C, | 
[V:1] z4F3G | 
[V:2] c2BAB4 | 
[V:3] F8 | 
[V:4] D,4D,4 | 
[V:1] A2G3FED | 
[V:2] c2BAG4 | 
[V:3] E4E2FG | 
[V:4] C,8 | 
[V:1] C3DE2F2- | 
[V:2] z2C4D2 | 
[V:3] A4A4 | 
[V:4] z8 | 
[V:1] F2EDC2D2- | 
[V:2] C2F3EDC | 
[V:3] F3GA2B2- | 
[V:4] F,,6B,,2- | 
[V:1] D2C2B,4 | 
[V:2] B,2C2D4 | 
[V:3] BAF2G4 | 
[V:4] B,,2A,,2B,,4 | 
[V:1] A,6B,2- | 
[V:2] C4z4 | 
[V:3] A3Bc2d2- | 
[V:4] F,,6B,,2- | 
[V:1] B,2C2D2D2 | 
[V:2] z2F4G2 | 
[V:3] d2c4B2 | 
[V:4] B,,2A,,2B,,4 | 
[V:1] C4z2F2- | 
[V:2] A3/G/F3EA2- | 
[V:3] c8- | 
[V:4] F,,4F,,2F,2- | 
[V:1] F2G2A4 | 
[V:2] A2G4F2 | 
[V:3] c8 | 
[V:4] F,2E,2F,4 | 
[V:1] G2C2D2E2 | 
[V:2] G2A2B2c2 | 
[V:3] z8 | 
[V:4] C,4z4 | 
[V:1] F2G2C4 | 
[V:2] A2G4c2- | 
[V:3] z8 | 
[V:4] z8 | 
[V:1] D4C2D2 | 
[V:2] c2B2c2F2 | 
[V:3] z8 | 
[V:4] z8 | 
[V:1] E2F2D2C2- | 
[V:2] G2A2B2c2 | 
[V:3] z8 | 
[V:4] z8 | 
[V:1] C2F4E2 | 
[V:2] F4G4 | 
[V:3] z8 | 
[V:4] z8 | 
[V:1] F8 | 
[V:2] F4z2F2- | 
[V:3] z8 | 
[V:4] z2F,3E,D,C, | 
[V:1] z4z2A2- | 
[V:2] F2EDC2c2- | 
[V:3] z8 | 
[V:4] D,2C,B,,A,,4 | 
[V:1] AGFEF2ED | 
[V:2] cBAGAFc2- | 
[V:3] c8- | 
[V:4] z4A,,4- | 
[V:1] C2c3BAG | 
[V:2] cde3dcB | 
[V:3] c8 | 
[V:4] A,,4C,4- | 
[V:1] A2GFE4 | 
[V:2] c2BAG3F/E/ | 
[V:3] c8 | 
[V:4] C,4C,4 | 
[V:1] F8 | 
[V:2] D8 | 
[V:3] d8- | 
[V:4] z4B,,4 | 
[V:1] z2F2G2B2- | 
[V:2] z2B2B4 | 
[V:3] d8 | 
[V:4] B,,4B,,4 | 
[V:1] BAG3FED | 
[V:2] B4B4 | 
[V:3] d8 | 
[V:4] B,,4B,,4 | 
[V:1] E8 | 
[V:2] G4z2E2- | 
[V:3] c8 | 
[V:4] C,4z2C,2- | 
[V:1] z8 | 
[V:2] E2C2D2E2 | 
[V:3] z2F2G2A2- | 
[V:4] C,2A,,2B,,2C,2- | 
[V:1] z8 | 
[V:2] C4D4 | 
[V:3] A2F4G2 | 
[V:4] C,A,,A,,2B,,4 | 
[V:1] z8 | 
[V:2] C4z2E2- | 
[V:3] A2F2G2A2- | 
[V:4] A,,4z2C,2- | 
[V:1] z8 | 
[V:2] E2C2D2E2 | 
[V:3] A2F2G2A2 | 
[V:4] C,2A,,2B,,2C,2- | 
[V:1] z8 | 
[V:2] C4D4 | 
[V:3] B2A4G2 | 
[V:4] C,A,,A,,2B,,4 | 
[V:1] z4z2A2- | 
[V:2] C2c3BAG | 
[V:3] A2F2E2F2- | 
[V:4] A,,8 | 
[V:1] A2F2G2A2- | 
[V:2] F4z4 | 
[V:3] F2c2F2c2- | 
[V:4] z2A,,2B,,2C,2 | 
[V:1] AFF4E2 | 
[V:2] z4c4 | 
[V:3] c2BAG4 | 
[V:4] F,,4C,4 | 
[V:1] F2A2G2F2 | 
[V:2] A2c3BAG | 
[V:3] z2F2E2F2- | 
[V:4] z8 | 
[V:1] c3BA2G2- | 
[V:2] F2E2D2E2 | 
[V:3] F2c2F2c2- | 
[V:4] z2A,,2B,,2C,2 | 
[V:1] GFF4E2 | 
[V:2] C2c3BAG | 
[V:3] c2BAG4 | 
[V:4] F,,4C,4 | 
[V:1] F8 ||  
[V:2] A8 ||  
[V:3] F8 ||  
[V:4] F,,8 ||  
[V:1]  [K:F] [K:clef=treble][M:2/1]z8 | 
[V:2]  [K:F] [K:clef=treble-8][M:2/1]z8 | 
[V:3]  [K:F] [K:clef=treble-8][M:2/1]F4c4- | 
[V:4]  [K:F] [K:clef=bass][M:2/1]F,6E,D, | 
[V:1] z8 | 
[V:2] z8 | 
[V:3] c4d4 | 
[V:4] E,2F,2D,4 | 
[V:1] C4G4- | 
[V:2] z8 | 
[V:3] _e6dc | 
[V:4] C,6B,,A,, | 
[V:1] G4A4 | 
[V:2] z8 | 
[V:3] d2_e2c4 | 
[V:4] B,,2C,2A,,4 | 
[V:1] B6AG | 
[V:2] z8 | 
[V:3] B3cd_ed2- | 
[V:4] G,,8 | 
[V:1] A2B2G4 | 
[V:2] z8 | 
[V:3] dAd4c2 | 
[V:4] z2D,2_E,4 | 
[V:1] z2F4ED | 
[V:2] z8 | 
[V:3] d8 | 
[V:4] D,6C,B,, | 
[V:1] E2F2D2C2- | 
[V:2] z8 | 
[V:3] z2B4AG | 
[V:4] C,2D,3E,F,2- | 
[V:1] C2F4E2 | 
[V:2] z8 | 
[V:3] A2B2G4 | 
[V:4] F,2B,,2C,2G,2 | 
[V:1] F8 | 
[V:2] z8 | 
[V:3] F2d4cB | 
[V:4] A,2B,4A,G, | 
[V:1] z2B4AG | 
[V:2] z8 | 
[V:3] c2d2B4 | 
[V:4] A,2B,2G,4 | 
[V:1] A2B2G2F2- | 
[V:2] z8 | 
[V:3] z2_e4dc | 
[V:4] F,2G,3A,B,2- | 
[V:1] F2B4A2 | 
[V:2] z8 | 
[V:3] d2_e2c4 | 
[V:4] B,2_E,2F,4 | 
[V:1] B3AG2F2- | 
[V:2] z8 | 
[V:3] z2B4AG | 
[V:4] B,,8 | 
[V:1] F2G3EA2- | 
[V:2] z8 | 
[V:3] A2B2G2F2 | 
[V:4] z2_E,4D,C, | 
[V:1] A2G4F_E | 
[V:2] z8 | 
[V:3] GFB4A2 | 
[V:4] D,2_E,2C,4 | 
[V:1] D8 | 
[V:2] z8 | 
[V:3] B2F4ED | 
[V:4] B,,8 | 
[V:1] z8 | 
[V:2] z8 | 
[V:3] E2F2D2C2- | 
[V:4] z2B,,4A,,G,, | 
[V:1] z4B,4 | 
[V:2] z8 | 
[V:3] C2F4E2 | 
[V:4] A,,2B,,2G,,4 | 
[V:1] A,3B,C2D2 | 
[V:2] z8 | 
[V:3] F3GA2F2 | 
[V:4] F,,8 | 
[V:1] ECF4ED | 
[V:2] z8 | 
[V:3] G2A2F2G2 | 
[V:4] z4B,,4 | 
[V:1] C3DE2F2 | 
[V:2] z8 | 
[V:3] A8 | 
[V:4] A,,3B,,C,2D,2 | 
[V:1] GEA4GF | 
[V:2] z8 | 
[V:3] z4F4 | 
[V:4] E,2F,4E,D, | 
[V:1] E4z4 | 
[V:2] z8 | 
[V:3] G2EFGEA2 | 
[V:4] C,3D,E,2F,2 | 
[V:1] z4A4 | 
[V:2] z8 | 
[V:3] B2c4BA | 
[V:4] G,2A,4G,F, | 
[V:1] G2E2F4 | 
[V:2] z8 | 
[V:3] BGc4B2 | 
[V:4] E,2C,2D,4 | 
[V:1] E2C4B,A, | 
[V:2] z8 | 
[V:3] c4F4 | 
[V:4] C,4z4 | 
[V:1] B,G,C4B,2 | 
[V:2] z8 | 
[V:3] E2C2D4 | 
[V:4] z4z2B,,2 | 
[V:1] C4z2G2 | 
[V:2] z8 | 
[V:3] C2F4E2 | 
[V:4] A,,2F,,2G,,4 | 
[V:1] A2c3BA2- | 
[V:2] z8 | 
[V:3] F4c4- | 
[V:4] F,,4z2F,2- | 
[V:1] A2G2F2B2- | 
[V:2] z8 | 
[V:3] c4d4 | 
[V:4] F,2E,2D,2G,2- | 
[V:1] BAB2G2F2 | 
[V:2] z8 | 
[V:3] B8 | 
[V:4] G,F,G,3F,E,D, | 
[V:1] E2A3GFE | 
[V:2] z8 | 
[V:3] c4A4 | 
[V:4] C,2F,3E,D,C, | 
[V:1] D2G4^F2 | 
[V:2] z8 | 
[V:3] B4A4 | 
[V:4] B,,A,,G,,2z2D,2 | 
[V:1] G4z2C2 | 
[V:2] z8 | 
[V:3] G8- | 
[V:4] _E,2C,4C,2 | 
[V:1] D2E2C2D2 | 
[V:2] z8 | 
[V:3] G8- | 
[V:4] B,,2C,4B,,A,, | 
[V:1] B,2D2C2D2 | 
[V:2] z8 | 
[V:3] G8- | 
[V:4] G,,2A,,B,,C,2B,,2 | 
[V:1] B,2CD_E2D2- | 
[V:2] z8 | 
[V:3] G8 | 
[V:4] G,,2A,,B,,C,2B,,2 | 
[V:1] D2C4=B,2 | 
[V:2] z8 | 
[V:3] z4F4 | 
[V:4] C,2_E,2D,4 | 
[V:1] C4z2C2 | 
[V:2] z8 | 
[V:3] G4A4 | 
[V:4] C,4A,,4 | 
[V:1] D4E4 | 
[V:2] z8 | 
[V:3] B4G4 | 
[V:4] z2G,,2C,3B,,/C,/ | 
[V:1] F2GAB2A2- | 
[V:2] z8 | 
[V:3] F2c2d2c2- | 
[V:4] D,2C,2G,,2A,,2 | 
[V:1] AGF4E2 | 
[V:2] z8 | 
[V:3] c2BAG4 | 
[V:4] F,,G,,A,,B,,C,3B,,/C,/ | 
[V:1] F2C2D2C2- | 
[V:2] z8 | 
[V:3] F2GAB2A2- | 
[V:4] D,2C,2G,,2A,,2 | 
[V:1] C2B,A,G,4 | 
[V:2] z8 | 
[V:3] AGF4E2 | 
[V:4] F,,G,,A,,B,,C,4 | 
[V:1] A,4z4 | 
[V:2] z8 | 
[V:3] F2GAB2A2- | 
[V:4] F,,2C,2D,2C,2- | 
[V:1] A,4B,4 | 
[V:2] z8 | 
[V:3] AGF4E2 | 
[V:4] C,2B,,A,,G,,4 | 
[V:1] A,6G,F, | 
[V:2] z8 | 
[V:3] F6ED | 
[V:4] F,,4F,,4 | 
[V:1] G,8- | 
[V:2] z8 | 
[V:3] E8- | 
[V:4] C,8 | 
[V:1] G,8 ||  
[V:2] z8 ||  
[V:3] E8 ||  
[V:4] C,8 ||  
[V:1]  [K:F] [K:clef=treble][M:2/1]z4C4- | 
[V:2]  [K:F] [K:clef=treble-8][M:2/1]C8 | 
[V:3]  [K:F] [K:clef=treble-8][M:2/1]F8- | 
[V:4]  [K:F] [K:clef=bass][M:2/1]F,,8 | 
[V:1] C4C2DE | 
[V:2] C2DEF4 | 
[V:3] F8 | 
[V:4] F,,4F,,4 | 
[V:1] F4F4 | 
[V:2] F4D4 | 
[V:3] F4F2GA | 
[V:4] F,,2G,,A,,B,,4 | 
[V:1] D4D2EF | 
[V:2] D2EFG4 | 
[V:3] B4B4 | 
[V:4] B,,4G,,4 | 
[V:1] G4G4 | 
[V:2] G4E4 | 
[V:3] G4G2AB | 
[V:4] G,,2A,,B,,C,4 | 
[V:1] E4E2FG | 
[V:2] E2FGA4 | 
[V:3] c4c4 | 
[V:4] C,4A,,4 | 
[V:1] A4AGFE | 
[V:2] AGFEF4 | 
[V:3] A4A2Bc | 
[V:4] A,,2B,,C,D,4 | 
[V:1] F8 | 
[V:2] B8 | 
[V:3] d4d4 | 
[V:4] D,C,B,,A,,B,,4 | 
[V:1] E4z2E2 | 
[V:2] G4z2c2 | 
[V:3] c8- | 
[V:4] C,8- | 
[V:1] G3FGFED | 
[V:2] e3dedcB | 
[V:3] c8 | 
[V:4] C,8 | 
[V:1] C2E2D4 | 
[V:2] AGc4=B2 | 
[V:3] z8 | 
[V:4] z8 | 
[V:1] C8 | 
[V:2] c8- | 
[V:3] z4z2F2 | 
[V:4] z4A,,4 | 
[V:1] z4z2c2- | 
[V:2] c8 | 
[V:3] A3GAGFE | 
[V:4] C,3B,,C,B,,A,,G,, | 
[V:1] c2A2B4 | 
[V:2] z8 | 
[V:3] DCF4E2 | 
[V:4] F,,2A,,2G,,4 | 
[V:1] A6GF | 
[V:2] z8 | 
[V:3] F4z2A2 | 
[V:4] F,,8 | 
[V:1] E2A3GFE | 
[V:2] z8 | 
[V:3] c3BcBAG | 
[V:4] z8 | 
[V:1] DCF4E2 | 
[V:2] z8 | 
[V:3] F2A2G4 | 
[V:4] z8 | 
[V:1] F8 | 
[V:2] z2d4cB | 
[V:3] F8- | 
[V:4] z8 | 
[V:1] z8 | 
[V:2] c2d2D4 | 
[V:3] F8- | 
[V:4] z2B,,4A,,G,, | 
[V:1] z2D4CB, | 
[V:2] z8 | 
[V:3] F8 | 
[V:4] A,,2B,,2F,,4 | 
[V:1] C2D2A,4 | 
[V:2] z2A4GF | 
[V:3] z4F4 | 
[V:4] z2F,4E,D, | 
[V:1] z2A4GF | 
[V:2] G2A2E4- | 
[V:3] c8- | 
[V:4] E,2F,2C,4 | 
[V:1] G2A2E4 | 
[V:2] E4G4 | 
[V:3] c8- | 
[V:4] C,8 | 
[V:1] z8 | 
[V:2] z2A4GF | 
[V:3] c8- | 
[V:4] z2F,4E,D, | 
[V:1] z2A4GF | 
[V:2] G2A2E4- | 
[V:3] c8 | 
[V:4] E,2F,2C,4 | 
[V:1] G2A2E2A2 | 
[V:2] E2F2G2AF | 
[V:3] c8 | 
[V:4] z4z2F,2 | 
[V:1] G2F4E2 | 
[V:2] G2A2D2E2 | 
[V:3] B4A4 | 
[V:4] _E,2D,4C,2 | 
[V:1] D2F3GE2 | 
[V:2] F4z4 | 
[V:3] B4A4 | 
[V:4] B,,2D,2C,4 | 
[V:1] D2F4ED | 
[V:2] F8- | 
[V:3] B8 | 
[V:4] B,,8 | 
[V:1] C8 | 
[V:2] F8 | 
[V:3] A8- | 
[V:4] z4F,,4 | 
[V:1] C4C4- | 
[V:2] E4A4- | 
[V:3] A8 | 
[V:4] A,,8 | 
[V:1] C4C4 | 
[V:2] A8- | 
[V:3] z4F4- | 
[V:4] A,,8 | 
[V:1] C4D4- | 
[V:2] A4B4- | 
[V:3] F4F4 | 
[V:4] F,,4B,,4- | 
[V:1] D4C2E2 | 
[V:2] B2AGc4 | 
[V:3] G4A4 | 
[V:4] B,,4A,,4 | 
[V:1] D2F3EC2 | 
[V:2] F4z4 | 
[V:3] D3EFGA2- | 
[V:4] B,,4A,,4 | 
[V:1] D2G4A2 | 
[V:2] z8 | 
[V:3] A2G4F2- | 
[V:4] B,,4A,,2F,,2 | 
[V:1] B4B4 | 
[V:2] z2G3ABc | 
[V:3] F2EDE4 | 
[V:4] G,,4G,,4 | 
[V:1] A8- | 
[V:2] d2c2A4 | 
[V:3] F2c4Bc | 
[V:4] F,,8- | 
[V:1] A8 | 
[V:2] z2F4EF | 
[V:3] d2c2A3G/A/ | 
[V:4] F,,8 | 
[V:1] z4A4 | 
[V:2] G2F2D4 | 
[V:3] B2A4GF | 
[V:4] z4F,,4 | 
[V:1] A4A4 | 
[V:2] z2f3ed2 | 
[V:3] E2A3GF2 | 
[V:4] A,,8- | 
[V:1] A8 | 
[V:2] c2d4^c2 | 
[V:3] E2D2E4 | 
[V:4] A,,8 | 
[V:1] F6ED | 
[V:2] d8 | 
[V:3] D8 | 
[V:4] B,,8 | 
[V:1] CA,A3GF2 | 
[V:2] z2c3BA2- | 
[V:3] z4A4- | 
[V:4] A,,4z2D,2 | 
[V:1] E2C2D4 | 
[V:2] AG/F/E4D2 | 
[V:3] A4G4 | 
[V:4] C,2A,,2B,,4 | 
[V:1] C2E4F2 | 
[V:2] E4C2D2 | 
[V:3] A8 | 
[V:4] A,,8 | 
[V:1] G4C2F2- | 
[V:2] E2C2F4 | 
[V:3] G4A4- | 
[V:4] z4z2D,2 | 
[V:1] FEC2D4 | 
[V:2] F2E4D2 | 
[V:3] A4G4 | 
[V:4] C,2A,,2B,,4 | 
[V:1] C2E4F2 | 
[V:2] E4C2D2 | 
[V:3] A8 | 
[V:4] A,,8 | 
[V:1] G2E3CC2- | 
[V:2] E2C2F3E | 
[V:3] G4A4 | 
[V:4] z4z2F,2 | 
[V:1] CDECF4- | 
[V:2] C2c4B2 | 
[V:3] G4F4 | 
[V:4] E,2C,2D,4 | 
[V:1] F2EDE4 | 
[V:2] c8 | 
[V:3] G8 | 
[V:4] C,8 | 
[V:1] F2c2B2A2 | 
[V:2] c4z2C2- | 
[V:3] F4z4 | 
[V:4] z2F,,2G,,2A,,2- | 
[V:1] c2BAG2A2 | 
[V:2] C2D2E2F2 | 
[V:3] z4z2c2 | 
[V:4] A,,2B,,2C,2F,,2 | 
[V:1] G2F2A2GF | 
[V:2] D2C4D2 | 
[V:3] B2A2c2BA | 
[V:4] G,,2A,,4B,,2 | 
[V:1] E2c2B2A2 | 
[V:2] E2F2D2C2- | 
[V:3] G2A2G2F2 | 
[V:4] C,2F,,2G,,2A,,2- | 
[V:1] c2BAG2A2 | 
[V:2] C2D2E2F2 | 
[V:3] A2GFE2c2 | 
[V:4] A,,2B,,2C,2F,,2 | 
[V:1] G2F2A2GF | 
[V:2] G2C4c2- | 
[V:3] B2A2c2BA | 
[V:4] z2F,,3G,,A,,B,, | 
[V:1] E2F4E2 | 
[V:2] c2B2c4 | 
[V:3] G2F2G4 | 
[V:4] C,2D,2C,4 | 
[V:1] F8 |]  
[V:2] c8 |]  
[V:3] F8 |]  
[V:4] F,,8 |]  



